svg/icon-logo-nyc.svg

<svg viewBox="0 0 350 117" xmlns="http://www.w3.org/2000/svg" fill-rule="evenodd" clip-rule="evenodd" stroke-linejoin="round" stroke-miterlimit="1.414"><g fill="currentColor" fill-rule="nonzero"><path d="M327.9 0l-72.9 0-21.8 21.9 0 72.8 21.8 21.9 72.9 0 21.8-21.9 0-21.8-7.2-7.3-36.5 0 0 7.3-29.1 0 0-29.2 29.1 0 0 7.2 36.5 0 7.2-7.2 0-21.8-21.8-21.9zM109.3 0l-29.2 0-7.2 7.3 0 29.1-36.5-36.4-29.1 0-7.3 7.3 0 102 7.3 7.3 29.1 0 7.3-7.3 0-29.2 36.4 36.5 29.2 0 7.3-7.3 0-102-7.3-7.3z"/><path d="M160.3,116.6l29.1,0l7.3,-7.3l0,-21.9l36.5,-36.4l0,-43.7l-7.3,-7.3l-29.2,0l-7.3,7.3l0,14.6l-14.5,14.5l-14.6,-14.5l0,-14.6l-7.3,-7.3l-29.1,0l-7.3,7.3l0,43.7l36.4,36.4l0,21.9l7.3,7.3Z"/></g></svg>

<svg viewBox="0 0 350 117" xmlns="http://www.w3.org/2000/svg" fill-rule="evenodd" clip-rule="evenodd" stroke-linejoin="round" stroke-miterlimit="1.414"><g fill="currentColor" fill-rule="nonzero"><path d="M327.9 0H255l-21.8 21.9v72.8l21.8 21.9h72.9l21.8-21.9V72.9l-7.2-7.3H306v7.3h-29.1V43.7H306v7.2h36.5l7.2-7.2V21.9L327.9 0zM109.3 0H80.1l-7.2 7.3v29.1L36.4 0H7.3L0 7.3v102l7.3 7.3h29.1l7.3-7.3V80.1l36.4 36.5h29.2l7.3-7.3V7.3L109.3 0zM160.3 116.6h29.1l7.3-7.3V87.4L233.2 51V7.3L225.9 0h-29.2l-7.3 7.3v14.6l-14.5 14.5-14.6-14.5V7.3L153 0h-29.1l-7.3 7.3V51L153 87.4v21.9l7.3 7.3z"/></g></svg>
